X:58
T:Waarvan gaan er de boeren
O:vlaanderen
C:Trad.
Z:Bart Vanhaverbeke 
L:1/8
M:3/8
K:G
"G"d2 c | BAB | "G"cBA | B2 G | "G"d2 c | BAB | "G"cBA | G2 G |
"Emin"GAB | "Amin"cBc | "D"ABc | "G" d3 |
"G"d2 c | BAB | "G"cBA | B2 G | "G"d2 c | "G7"BAB | "Cmin"cB"D7"A | G2 G |]
